packages/ffe-icons/icons/open/400/sm/sim_card.svg

<svg xmlns="http://www.w3.org/2000/svg" height="20" viewBox="0 -960 960 960" width="20"><path d="M347.789-240Q363-240 373.5-250.289q10.5-10.29 10.5-25.5Q384-291 373.711-301.5q-10.29-10.5-25.5-10.5Q333-312 322.5-301.711q-10.5 10.29-10.5 25.5Q312-261 322.289-250.5q10.29 10.5 25.5 10.5Zm0-144Q363-384 373.5-394.325 384-404.65 384-419.912v-71.825Q384-507 373.711-517.5q-10.29-10.5-25.5-10.5Q333-528 322.5-517.675 312-507.35 312-492.088v71.825Q312-405 322.289-394.5q10.29 10.5 25.5 10.5Zm132 144Q495-240 505.5-250.325 516-260.65 516-275.912v-71.825Q516-363 505.711-373.5q-10.29-10.5-25.5-10.5Q465-384 454.5-373.675 444-363.35 444-348.088v71.825Q444-261 454.289-250.5q10.29 10.5 25.5 10.5Zm0-216Q495-456 505.5-466.289q10.5-10.29 10.5-25.5Q516-507 505.711-517.5q-10.29-10.5-25.5-10.5Q465-528 454.5-517.711q-10.5 10.29-10.5 25.5Q444-477 454.289-466.5q10.29 10.5 25.5 10.5Zm132 216Q627-240 637.5-250.289q10.5-10.29 10.5-25.5Q648-291 637.711-301.5q-10.29-10.5-25.5-10.5Q597-312 586.5-301.711q-10.5 10.29-10.5 25.5Q576-261 586.289-250.5q10.29 10.5 25.5 10.5Zm0-144Q627-384 637.5-394.325 648-404.65 648-419.912v-71.825Q648-507 637.711-517.5q-10.29-10.5-25.5-10.5Q597-528 586.5-517.675 576-507.35 576-492.088v71.825Q576-405 586.289-394.5q10.29 10.5 25.5 10.5ZM263.717-96Q234-96 213-117.15T192-168v-474q0-14.222 5-27.111Q202-682 213-693l150-150q11-11 23.889-16T414-864h282q29.7 0 50.85 21.15Q768-821.7 768-792v624q0 29.7-21.162 50.85Q725.676-96 695.96-96H263.717Zm.283-72h432v-624H414L264-642v474Zm0 0h432-432Z"/></svg>

<svg xmlns="http://www.w3.org/2000/svg" height="20" viewBox="0 -960 960 960" width="20"><path d="M347.79-240q15.21 0 25.71-10.29t10.5-25.5q0-15.21-10.29-25.71t-25.5-10.5q-15.21 0-25.71 10.29t-10.5 25.5q0 15.21 10.29 25.71t25.5 10.5Zm0-144q15.21 0 25.71-10.32 10.5-10.33 10.5-25.59v-71.83q0-15.26-10.29-25.76-10.29-10.5-25.5-10.5t-25.71 10.32Q312-507.35 312-492.09v71.83q0 15.26 10.29 25.76 10.29 10.5 25.5 10.5Zm132 144q15.21 0 25.71-10.32 10.5-10.33 10.5-25.59v-71.83q0-15.26-10.29-25.76-10.29-10.5-25.5-10.5t-25.71 10.32Q444-363.35 444-348.09v71.83q0 15.26 10.29 25.76 10.29 10.5 25.5 10.5Zm0-216q15.21 0 25.71-10.29t10.5-25.5q0-15.21-10.29-25.71t-25.5-10.5q-15.21 0-25.71 10.29t-10.5 25.5q0 15.21 10.29 25.71t25.5 10.5Zm132 216q15.21 0 25.71-10.29t10.5-25.5q0-15.21-10.29-25.71t-25.5-10.5q-15.21 0-25.71 10.29t-10.5 25.5q0 15.21 10.29 25.71t25.5 10.5Zm0-144q15.21 0 25.71-10.32 10.5-10.33 10.5-25.59v-71.83q0-15.26-10.29-25.76-10.29-10.5-25.5-10.5t-25.71 10.32Q576-507.35 576-492.09v71.83q0 15.26 10.29 25.76 10.29 10.5 25.5 10.5ZM263.72-96Q234-96 213-117.15T192-168v-474q0-14.22 5-27.11Q202-682 213-693l150-150q11-11 23.89-16t27.11-5h282q29.7 0 50.85 21.15Q768-821.7 768-792v624q0 29.7-21.16 50.85Q725.68-96 695.96-96H263.72Zm.28-72h432v-624H414L264-642v474Zm0 0h432-432Z"/></svg>
